app/images/src/whatsapp.svg

<svg width="29" height="29" viewBox="0 0 29 29" fill="none" xmlns="http://www.w3.org/2000/svg">
<path fill-rule="evenodd" clip-rule="evenodd" d="M14.0394 27.1071C20.8239 27.1071 26.3238 21.6072 26.3238 14.8227C26.3238 8.03813 20.8239 2.53818 14.0394 2.53818C7.25483 2.53818 1.75488 8.03813 1.75488 14.8227C1.75488 17.0259 2.33488 19.0936 3.35053 20.8815L1.75488 27.1071L8.1734 25.6188C9.9165 26.5679 11.915 27.1071 14.0394 27.1071ZM14.0394 25.2172C19.7801 25.2172 24.4339 20.5634 24.4339 14.8227C24.4339 9.0819 19.7801 4.4281 14.0394 4.4281C8.29861 4.4281 3.6448 9.0819 3.6448 14.8227C3.6448 17.0392 4.33857 19.0937 5.52081 20.7808L4.58976 24.2723L8.14275 23.384C9.81821 24.5402 11.8497 25.2172 14.0394 25.2172Z" fill="white"/>
<path d="M10.9682 9.11917C10.6761 8.53252 10.228 8.58446 9.77539 8.58446C8.96644 8.58446 7.70508 9.55342 7.70508 11.3568C7.70508 12.8347 8.35633 14.4525 10.5508 16.8726C12.6687 19.2082 15.4514 20.4164 17.7616 20.3753C20.0718 20.3342 20.5471 18.3462 20.5471 17.6748C20.5471 17.3772 20.3625 17.2288 20.2353 17.1884C19.448 16.8106 17.996 16.1066 17.6657 15.9744C17.3353 15.8421 17.1628 16.021 17.0556 16.1183C16.756 16.4038 16.1621 17.2453 15.9587 17.4345C15.7554 17.6238 15.4522 17.528 15.3261 17.4565C14.8618 17.2702 13.6031 16.7103 12.5998 15.7376C11.3589 14.5348 11.2861 14.1209 11.0523 13.7525C10.8653 13.4578 11.0025 13.277 11.071 13.198C11.3383 12.8895 11.7075 12.4133 11.873 12.1766C12.0386 11.9399 11.9072 11.5806 11.8283 11.3568C11.4892 10.3942 11.2018 9.58849 10.9682 9.11917Z" fill="white"/>
</svg>

<svg width="29" height="29" fill="none" xmlns="http://www.w3.org/2000/svg"><path fill-rule="evenodd" clip-rule="evenodd" d="M14.04 27.107c6.784 0 12.284-5.5 12.284-12.284 0-6.785-5.5-12.285-12.285-12.285-6.784 0-12.284 5.5-12.284 12.285 0 2.203.58 4.27 1.596 6.058l-1.596 6.226 6.418-1.488a12.23 12.23 0 0 0 5.866 1.488Zm0-1.89c5.74 0 10.394-4.654 10.394-10.394 0-5.741-4.654-10.395-10.395-10.395-5.74 0-10.394 4.654-10.394 10.395 0 2.216.694 4.27 1.876 5.958l-.931 3.491 3.553-.888a10.346 10.346 0 0 0 5.896 1.833Z" fill="#fff"/><path d="M10.968 9.12c-.292-.587-.74-.536-1.193-.536-.809 0-2.07.97-2.07 2.773 0 1.478.651 3.096 2.846 5.516 2.118 2.335 4.9 3.543 7.21 3.502 2.31-.04 2.786-2.029 2.786-2.7 0-.298-.184-.446-.312-.487-.787-.377-2.239-1.081-2.57-1.214-.33-.132-.502.047-.61.144-.299.286-.893 1.127-1.096 1.317-.204.189-.507.093-.633.021-.464-.186-1.723-.746-2.726-1.718-1.241-1.203-1.314-1.617-1.548-1.986-.187-.294-.05-.475.019-.554.267-.309.636-.785.802-1.021.166-.237.034-.596-.045-.82-.339-.963-.626-1.769-.86-2.238Z" fill="#fff"/></svg>
